X: 2190
M: C
L: 1/8
K: F
f |\
f2af e2ge | f2df e2ce |
d2Bd c2Ac | BGcB AFFf |\
agfa gfeg | fedf edce |\
dcBd cBAc | dfeg aff |]


